!!!OTL: Mister Frog's Wedding
!!!ARE: United States of America; Kentucky
!!!AMD: Pentatonic
**kern
*clefG2
*k[b-]
*M2/4
*MM120
{8c/
=1
8f/L
8f/J
8f/L
8a/J
=2
8g/L
8f/J
8d/L}
{(8c/J
=3
4.f/)
(8c/
=4
4.f/)}
{8f/
=5
8a\L
8cc\J
8.cc\L
16cc\Jk
=6
8dd\L
8cc\J
4a/}
=7
{8cc/L
16a/L
16a/JJ
16g/LL
16g/J
8f/J
=8
16a/LL
16a/J
8f/J
8d/L}
{(8c/J
=9
4.f/)
(8c/
=10
4.f/)}
==
*-
